X:123
T:Reel 123
M:4/4
K:Dmaj
L:1/8
D>F (3FEF A2AB|cABA B>E (3EDE |D>F (3FEF dfed|cABG A2 (3ABc |d2FB A2AD|FGAF  (3EFE  (3EFE |dfed cA (3Bcd |cAGE D2z2|Ad (3dcd e2d2|dfef dcAG|F>E (3AEF GEFGEF|GABG d2c2|defd e2Ac|defd Bcd2|fedc dfed|cAGE FDD2|
